X:100
T:Balliorum. WM.100
M:9/8
L:1/8
Q:3/8=130
S:Wm.Mittell’s MS, New Romney,Kent,1799
R:.Slip Jig
O:England
A:Kent
Z:vmp.Chris Partington
W:Set and half right and left,the same back again to your own place.
W:Lead down the middle up again and Allemand
K:A
cea cea ecA|cea cea f2B|cea agf edc|d2B B/c/dB c2A:|!
|:cec dfd ecA|cec efg aed|cec dfd ecA|d2B B/c/dB c2A:|

